packages/ffe-icons/icons/filled/md/polyline.svg

<svg xmlns="http://www.w3.org/2000/svg" height="24" viewBox="0 -960 960 960" width="24"><path d="M610.001-150.769v-35.385L322.308-330.001H190.769q-25.308 0-43.038-17.73-17.73-17.73-17.73-43.038v-98.462q0-25.308 17.73-43.038 17.73-17.73 43.038-17.73h105.847l113.385-130.155v-129.077q0-25.308 17.73-43.038 17.73-17.73 43.038-17.73h98.462q25.308 0 43.038 17.73 17.73 17.73 17.73 43.038v98.462q0 25.308-17.73 43.038-17.73 17.73-43.038 17.73H463.384L349.999-519.846v136l263.079 131.232v-13.847q4.922-19.154 20.807-31.346 15.884-12.192 36.884-12.192h98.462q25.308 0 43.038 17.73 17.73 17.73 17.73 43.038v98.462q0 25.308-17.73 43.038-17.73 17.73-43.038 17.73h-98.462q-25.308 0-43.038-17.73-17.73-17.73-17.73-43.038Z"/></svg>

<svg xmlns="http://www.w3.org/2000/svg" height="24" viewBox="0 -960 960 960" width="24"><path d="M610-150.77v-35.38L322.31-330H190.77q-25.31 0-43.04-17.73T130-390.77v-98.46q0-25.31 17.73-43.04T190.77-550h105.85L410-680.15v-129.08q0-25.31 17.73-43.04T470.77-870h98.46q25.31 0 43.04 17.73T630-809.23v98.46q0 25.31-17.73 43.04T569.23-650H463.38L350-519.85v136l263.08 131.24v-13.85q4.92-19.15 20.8-31.35Q649.77-310 670.77-310h98.46q25.31 0 43.04 17.73T830-249.23v98.46q0 25.31-17.73 43.04T769.23-90h-98.46q-25.31 0-43.04-17.73T610-150.77Z"/></svg>
